X: 1
T:Bourr\'ee
M:2/4
O:France
R:Bourr\'ee
K:G
F4 G2F2| A6B2| c6 d2| A3B cBAG| F4 G2F2| A6 B2| c6 d2| A8 ::
FEFG A2FA| c2B2 A3G| FEFG A2FA| c2BA B2G2| \
FEFG A2FA| c2B2 A3G| FEFG A2F2| G8:|
